packages/katcn/src/icons/svg/backpack.svg

<svg width="24" height="25" viewBox="0 0 24 25" fill="none" xmlns="http://www.w3.org/2000/svg">
<path d="M22 5.70801C22 3.70801 20.5 2.20801 18.5 2.20801H5.5C3.5 2.20801 2 3.70801 2 5.70801V9.80801C2 13.108 4.7 15.708 7.9 15.708H16.1C16.9 15.708 17.7 15.508 18.4 15.208V18.708C18.4 19.508 17.7 20.208 16.9 20.208H7.1C6.3 20.208 5.6 19.508 5.6 18.708V17.108C5.6 16.508 5.2 16.108 4.6 16.108C4 16.108 3.6 16.508 3.6 17.108V18.708C3.6 20.608 5.1 22.208 7.1 22.208H16.9C18.8 22.208 20.4 20.708 20.4 18.708V13.808C21.4 12.708 22 11.308 22 9.70801V5.70801ZM7.9 13.708C5.8 13.708 4 11.908 4 9.70801V5.70801C4 4.90801 4.7 4.20801 5.5 4.20801H18.6C19.3 4.20801 20 4.90801 20 5.70801V9.80801C20 12.008 18.2 13.708 16.1 13.708H7.9Z" fill="black"/>
<path d="M14.5 10.408H9.5C8.9 10.408 8.5 10.808 8.5 11.408C8.5 12.008 8.9 12.408 9.5 12.408H14.4C15 12.408 15.4 12.008 15.4 11.408C15.4 10.808 15 10.408 14.5 10.408Z" fill="black"/>
</svg>

<svg xmlns="http://www.w3.org/2000/svg" fill="none" viewBox="0 0 24 25"><path fill="#000" d="M22 5.708c0-2-1.5-3.5-3.5-3.5h-13c-2 0-3.5 1.5-3.5 3.5v4.1c0 3.3 2.7 5.9 5.9 5.9h8.2c.8 0 1.6-.2 2.3-.5v3.5c0 .8-.7 1.5-1.5 1.5H7.1c-.8 0-1.5-.7-1.5-1.5v-1.6c0-.6-.4-1-1-1s-1 .4-1 1v1.6c0 1.9 1.5 3.5 3.5 3.5h9.8c1.9 0 3.5-1.5 3.5-3.5v-4.9c1-1.1 1.6-2.5 1.6-4.1zm-14.1 8c-2.1 0-3.9-1.8-3.9-4v-4c0-.8.7-1.5 1.5-1.5h13.1c.7 0 1.4.7 1.4 1.5v4.1c0 2.2-1.8 3.9-3.9 3.9z"/><path fill="#000" d="M14.5 10.408h-5c-.6 0-1 .4-1 1s.4 1 1 1h4.9c.6 0 1-.4 1-1s-.4-1-.9-1"/></svg>
